X: 4402
M: 3/4
L: 1/8
K: D
|:\
d>d(.f2.a2) | a>Bg4 | f>Ae4 |[1 e>Ad4 :|[2 d2d4 |:\
c3edc | d>Ed4 | d3fe^d | e>Ee4 |
a3aba |[1 a>^g(.g2.g2) | ^g>f(.f2.f2) | f>e(.e2.e2) :|\
[2 a>^g(.g2.f2) | fedBF^G | Aba=ge"_D.C."c |] [K:=c]\
[K:G]\
|: "Trio."\
g3(dcB) | B2A4 | e3(^cAG) | (GF)(ED^CD) |\
g3(dcB) | (BA)(f3e) | (d^c=cA)(EF) | G2[g2B2]"_D.C."z2 :|


